X:1
T:Have Faith, Speak and Pray
T:Have Faith, Speak and Pray
T:James Monroe Hagan
T:James Monroe Hagan, 1905
T:Public Domain Courtesy of the Cyber Hymnal™
C:James Monroe Hagan
Z:Public Domain
Z:Courtesy of the Cyber Hymnal™
%%score ( 1 2 ) ( 3 4 )
L:1/8
Q:1/4=110
M:6/8
K:Bb
V:1 treble 
V:2 treble 
V:3 bass 
V:4 bass 
V:1
 ([B,D]/[CE]/) | [DF]2 [DF] [EG]2 [DF] | [DF] [DB]4 [FB] | [FA]2 [EG] [GB]2 [EG] | %4
w: 1.~“Have *|faith in God,” my|bro- ther, And|fight the hosts of|
w: 2.~O *|“speak the word,” my|bro- ther, Its|trea- sures rich un-|
w: 3.~“Pray *|with- out ceas- ing,”|bro- ther, And|all thy wants make|
 [DF]3- [DF]2 ([B,D]/[CE]/) | [DF]2 [DF] [EG]2 [DF] | [DF] [DB]4 [Fd] | [Ec]2 [Ec] [DB]2 [EA] | %8
w: sin; * The *|Cap- tain of sal-|va- tion Will|give you strength to|
w: fold; * Point *|sin- ners to the|Sav- ior, Whose|love can ne’er be|
w: known * To *|Him who reigns in|Heav- en Up-|on His roy- al|
 [DB]3- [DB]2 ||"^Refrain" [DF] | d3- [Fd]2 [DB] | F3- [DF]2 [FB] | [FA]2 [Fe] [EG]2 [EA] | %13
w: win. *|||||
w: told. *|Have|faith and pray,|* The Word|* sin- cere- ly|
w: throne. *|||||
 ([EG]3 [DF]2) [DF] | [Fd]3- [Fd]2 ([Ec]/[Fd]/) | [Ge]3- [Ge]2 [EG] | [DF]2 [FB] [EA]2 (G/A/) | %17
w: ||||
w: speak; * Trust|God, * o- *|bey, * All|need- ed bless- ings *|
w: ||||
 [DB]3- [DB]2 |] %18
w: |
w: seek. *|
w: |
V:2
 x | x6 | x6 | x6 | x6 | x6 | x6 | x6 | x5 || x | F2 F x3 | D2 D x3 | x6 | x6 | x6 | x6 | x5 E | %17
 x5 |] %18
V:3
 [B,,F,] | [B,,B,]2 [B,,B,] [B,,B,]2 [B,,B,] | [B,,B,] [B,,F,]4 [D,B,] | %3
w: ~|~ ~ ~ ~|~ ~ ~|
 [E,B,]2 [E,B,] [E,B,]2 [E,B,] | [B,,B,]3- [B,,B,]2 [B,,F,] | [B,,B,]2 [B,,B,] [B,,B,]2 [B,,B,] | %6
w: ~ ~ ~ ~|~ * ~|~ ~ ~ ~|
 [B,,B,] [B,,F,]4 [B,,B,] | [E,G,]2 [E,G,] F,2 F, | [B,,F,]3- [B,,F,]2 || [B,,F,] | %10
w: ~ ~ ~|~ ~ ~ ~|~ *|Have|
 [B,,B,]2 [B,,B,] [B,,B,]2 [B,,F,] | [B,,B,]2 [B,,B,] [B,,B,]2 [D,B,] | [F,C]2 [F,C] [F,C]2 [F,C] | %13
w: faith in God and|pray al- way, ~|~ ~ ~ ~|
 [B,,B,]3- [B,,B,]2 [B,,B,] | [B,,B,]2 [B,,B,] [B,,B,]2 [B,,B,] | [E,B,]2 [E,B,] [E,B,]2 [E,B,] | %16
w: ~ * Trust|God for grace, o-|bey to- day, *|
 [F,B,]2 [F,D] [F,C]2 [F,C] | [B,,B,]3- [B,,B,]2 |] %18
w: ||
V:4
 x | x6 | x6 | x6 | x6 | x6 | x6 | x3 F,2 F, | x5 || x | x6 | x6 | x6 | x6 | x6 | x6 | x6 | x5 |] %18

